X: 53
T:Fairy Reel, The
M:C|
L:1/8
R:Reel
K:G
BcBA GBdB|cBAG FGAc|~B3d cBAg|(fgaf gfed|!
BcBA GBdB|cBAG FGAc|~B3G cBAG|1FDEF G3A:|2FDEF GABc|!
|:(d2d)B (e2e)d|cBcA d2dc|~B3d cBAg|fgaf gfed|!
"var."BcdB eBdB|cBcA d2dc|~B3G cBAG|1FDEF GABc:|2FDEF G3A|]!
